src/places/16/folder-git.svg

<svg xmlns="http://www.w3.org/2000/svg" width="16" height="16" viewBox="0 0 16 16">
 <defs>
  <style id="current-color-scheme" type="text/css">
   .ColorScheme-Text { color:#2e3440; }
  </style>
 </defs>
 <path style="fill:currentColor" class="ColorScheme-Text" d="M 2.7070312 0.015625 L 2.0019531 0.72265625 L 3.4082031 2.1308594 A 2.5 2.5 0 0 0 2.9980469 3.5 A 2.5 2.5 0 0 0 4.9980469 5.9492188 L 4.9980469 10.054688 A 2.5 2.5 0 0 0 2.9980469 12.5 A 2.5 2.5 0 0 0 5.4980469 15 A 2.5 2.5 0 0 0 7.9980469 12.5 A 2.5 2.5 0 0 0 5.9980469 10.050781 L 5.9980469 5.9453125 A 2.5 2.5 0 0 0 6.8671875 5.5917969 L 8.4082031 7.1328125 A 2.5 2.5 0 0 0 8 8.5019531 A 2.5 2.5 0 0 0 10.5 11.001953 A 2.5 2.5 0 0 0 13 8.5019531 A 2.5 2.5 0 0 0 10.5 6.0019531 A 2.5 2.5 0 0 0 9.1132812 6.4238281 L 7.5800781 4.8886719 A 2.5 2.5 0 0 0 8 3.5019531 A 2.5 2.5 0 0 0 5.5 1.0019531 A 2.5 2.5 0 0 0 4.1152344 1.4238281 L 2.7089844 0.017578125 L 2.7070312 0.015625 z" />
</svg>

<svg width="16" height="16" viewBox="0 0 16 16" xmlns="http://www.w3.org/2000/svg">
 <defs>
  <style type="text/css">.ColorScheme-Text { color:#2e3440; }</style>
 </defs>
 <path class="ColorScheme-Text" d="m2.707 0.015625-0.70508 0.70703 1.4062 1.4082a2.5 2.5 0 0 0-0.41016 1.3691 2.5 2.5 0 0 0 2 2.4492v4.1055a2.5 2.5 0 0 0-2 2.4453 2.5 2.5 0 0 0 2.5 2.5 2.5 2.5 0 0 0 2.5-2.5 2.5 2.5 0 0 0-2-2.4492v-4.1055a2.5 2.5 0 0 0 0.86914-0.35352l1.541 1.541a2.5 2.5 0 0 0-0.4082 1.3691 2.5 2.5 0 0 0 2.5 2.5 2.5 2.5 0 0 0 2.5-2.5 2.5 2.5 0 0 0-2.5-2.5 2.5 2.5 0 0 0-1.3867 0.42188l-1.5332-1.5352a2.5 2.5 0 0 0 0.41992-1.3867 2.5 2.5 0 0 0-2.5-2.5 2.5 2.5 0 0 0-1.3848 0.42188l-1.4082-1.4082z" fill="currentColor"/>
</svg>
